public/swb_ll.svg

<?xml version="1.0" encoding="UTF-8" standalone="no"?>
<svg
   width="1000"
   height="1000"
   class="icon icon-tabler icons-tabler-outline icon-tabler-wash-machine"
   stroke-linejoin="round"
   stroke-width="2"
   version="1.1"
   id="svg20538"
   sodipodi:docname="swb_ll.svg"
   xml:space="preserve"
   inkscape:version="1.4 (86a8ad7, 2024-10-11)"
   viewBox="0 0 64 64"
   xmlns:inkscape="http://www.inkscape.org/namespaces/inkscape"
   xmlns:sodipodi="http://sodipodi.sourceforge.net/DTD/sodipodi-0.dtd"
   xmlns="http://www.w3.org/2000/svg"
   xmlns:svg="http://www.w3.org/2000/svg"><defs
     id="defs20542" /><sodipodi:namedview
     id="namedview20540"
     pagecolor="#ffffff"
     bordercolor="#000000"
     borderopacity="0.25"
     inkscape:showpageshadow="2"
     inkscape:pageopacity="0.0"
     inkscape:pagecheckerboard="0"
     inkscape:deskcolor="#d1d1d1"
     showgrid="false"
     inkscape:zoom="0.13623047"
     inkscape:cx="-2176.4588"
     inkscape:cy="-341.33334"
     inkscape:window-width="1920"
     inkscape:window-height="1009"
     inkscape:window-x="1912"
     inkscape:window-y="-8"
     inkscape:window-maximized="1"
     inkscape:current-layer="svg20538" /><g
     id="g1"
     transform="matrix(3,0,0,3,-4.0000003,-3.9999997)"><path
       style="color:#000000;fill:#000000;-inkscape-stroke:none"
       d="m 6.3242192,1.9999998 c -1.729844,0 -3.269531,1.282033 -3.269531,3 V 19 c 0,1.717967 1.539687,3 3.269531,3 H 17.675781 c 1.729844,0 3.269531,-1.282033 3.269531,-3 V 4.9999998 c 0,-1.717967 -1.539687,-3 -3.269531,-3 z m 0,2 H 17.675781 c 0.777527,0 1.269531,0.508831 1.269531,1 V 19 c 0,0.491169 -0.492004,1 -1.269531,1 H 6.3242192 c -0.777527,0 -1.269532,-0.508831 -1.269532,-1 V 4.9999998 c 0,-0.491169 0.492005,-1 1.269532,-1 z"
       id="path18298" /><path
       style="color:#000000;fill:#000000;-inkscape-stroke:none"
       d="m 13.285156,4.9999998 v 2 h 4.359375 v -2 z"
       id="path18292" /><path
       style="color:#000000;fill:#000000;-inkscape-stroke:none"
       d="m 6.4453122,5.0390628 v 2 h 2 v -2 z"
       id="path18280" /><path
       style="color:#000000;fill:#000000;-inkscape-stroke:none"
       d="m 9.6250002,5.0390628 v 2 H 11.625 v -2 z"
       id="path18286" /><path
       style="color:#000000;fill:#000000;stroke-linecap:round;-inkscape-stroke:none"
       d="M 9.8320313,8.2871094 C 9.290941,8.2776301 8.8467332,8.5194701 8.5214844,8.7792969 a 0.57505749,0.57505749 0 0 0 -0.019531,0.013672 L 5.4804687,11.419922 A 0.57505749,0.57505749 0 0 0 5.4375,12.244141 L 7.4179687,14.375 a 0.57505749,0.57505749 0 0 0 0.7929688,0.04687 l 0.3339844,-0.28125 0.056641,4.158203 a 0.57505749,0.57505749 0 0 0 0.5761719,0.568359 H 12 14.822266 a 0.57505749,0.57505749 0 0 0 0.576172,-0.568359 l 0.05664,-4.158203 0.333985,0.28125 A 0.57505749,0.57505749 0 0 0 16.582031,14.375 L 18.5625,12.244141 A 0.57505749,0.57505749 0 0 0 18.51953,11.419922 L 15.498047,8.7929688 a 0.57505749,0.57505749 0 0 0 -0.01953,-0.013672 C 15.153295,8.5194933 14.70914,8.2775673 14.167969,8.2871094 c -0.179185,0.00319 -0.367283,0.035406 -0.552735,0.1015625 A 0.57505749,0.57505749 0 0 0 13.25,8.7910156 C 13.113729,9.3319934 12.910081,9.5654221 12.705078,9.703125 12.501794,9.8396735 12.255943,9.8854339 12,9.8886719 11.744063,9.8854371 11.498206,9.8396739 11.294922,9.703125 11.089919,9.5654217 10.886271,9.3319935 10.75,8.7910156 A 0.57505749,0.57505749 0 0 0 10.384766,8.3886719 C 10.199342,8.3225268 10.011282,8.290281 9.8320313,8.2871094 Z M 9.8125,9.4375 c 0.021559,3.815e-4 0.044768,0.0089 0.066406,0.011719 0.206779,0.4906561 0.42728,0.976465 0.773438,1.208984 0.454872,0.305544 0.948328,0.379009 1.341797,0.382813 a 0.57505749,0.57505749 0 0 0 0.01172,0 c 0.393464,-0.0038 0.886925,-0.07727 1.341797,-0.382813 0.346157,-0.232518 0.566658,-0.7183283 0.773438,-1.208984 0.02165,-0.00282 0.04482,-0.011335 0.06641,-0.011719 0.176479,-0.00311 0.379588,0.086942 0.570313,0.2382813 0.0013,0.00107 0.0026,8.799e-4 0.0039,0.00195 l 2.552734,2.2207037 -1.201172,1.292968 -0.84375,-0.71289 a 0.57505749,0.57505749 0 0 0 -0.945312,0.43164 l -0.06836,4.806641 H 12 9.7441406 l -0.068359,-4.806641 a 0.57505749,0.57505749 0 0 0 -0.9453125,-0.43164 l -0.8437501,0.71289 -1.2011718,-1.292968 2.5527344,-2.2207037 0.00391,-0.00195 C 9.4328834,9.5244648 9.6359391,9.4344069 9.8125,9.4375 Z"
       id="path21962" /></g></svg>

<svg width="1000" height="1000" class="icon icon-tabler icons-tabler-outline icon-tabler-wash-machine" stroke-linejoin="round" stroke-width="2" xml:space="preserve" viewBox="0 0 64 64" xmlns="http://www.w3.org/2000/svg">
    <path style="color:#000;fill:#000;-inkscape-stroke:none" d="M6.324 2c-1.73 0-3.27 1.282-3.27 3v14c0 1.718 1.54 3 3.27 3h11.352c1.73 0 3.27-1.282 3.27-3V5c0-1.718-1.54-3-3.27-3zm0 2h11.352c.777 0 1.27.509 1.27 1v14c0 .491-.493 1-1.27 1H6.324c-.777 0-1.27-.509-1.27-1V5c0-.491.493-1 1.27-1z" transform="matrix(3 0 0 3 -4 -4)"/>
    <path style="color:#000;fill:#000;-inkscape-stroke:none" d="M13.285 5v2h4.36V5zm-6.84.04v2h2v-2zm3.18 0v2h2v-2z" transform="matrix(3 0 0 3 -4 -4)"/>
    <path style="color:#000;fill:#000;stroke-linecap:round;-inkscape-stroke:none" d="M9.832 8.287c-.541-.01-.985.232-1.31.492a.575.575 0 0 0-.02.014L5.48 11.42a.575.575 0 0 0-.043.824l1.981 2.131a.575.575 0 0 0 .793.047l.334-.281.057 4.158a.575.575 0 0 0 .576.568h5.644a.575.575 0 0 0 .576-.568l.057-4.158.334.28a.575.575 0 0 0 .793-.046l1.98-2.13a.575.575 0 0 0-.042-.825l-3.022-2.627a.575.575 0 0 0-.02-.014c-.325-.26-.769-.501-1.31-.492-.18.003-.367.036-.553.102a.575.575 0 0 0-.365.402c-.136.541-.34.774-.545.912-.203.137-.45.182-.705.186-.256-.004-.502-.05-.705-.186-.205-.138-.409-.371-.545-.912a.575.575 0 0 0-.365-.402 1.741 1.741 0 0 0-.553-.102Zm-.02 1.15c.022 0 .045.01.067.012.207.49.427.977.773 1.21.455.305.949.378 1.342.382a.575.575 0 0 0 .012 0c.393-.004.887-.077 1.342-.383.346-.232.566-.718.773-1.209.022-.003.045-.011.067-.012.176-.003.38.087.57.239l.004.002 2.552 2.22-1.2 1.293-.844-.712a.575.575 0 0 0-.946.431l-.068 4.807H9.744l-.068-4.807a.575.575 0 0 0-.946-.431l-.843.712-1.201-1.293 2.552-2.22.004-.002c.19-.152.394-.242.57-.239Z" transform="matrix(3 0 0 3 -4 -4)"/>
</svg>
